assets/icons/search.svg

<svg width="24" height="24" viewBox="0 0 24 24" fill="none" xmlns="http://www.w3.org/2000/svg">
  <path fill-rule="evenodd" clip-rule="evenodd"
    d="M21.669 21.6543C21.8625 21.4622 21.863 21.1494 21.6703 20.9566L17.3049 16.5913C18.7912 14.9327 19.7017 12.7525 19.7017 10.3508C19.7017 5.18819 15.5135 1 10.3508 1C5.18819 1 1 5.18819 1 10.3508C1 15.5135 5.18819 19.7017 10.3508 19.7017C12.7624 19.7017 14.9475 18.7813 16.606 17.2852L20.9739 21.653C21.1657 21.8449 21.4765 21.8454 21.669 21.6543ZM1.9843 10.3508C1.9843 5.7394 5.7394 1.9843 10.3508 1.9843C14.9623 1.9843 18.7174 5.7394 18.7174 10.3508C18.7174 14.9623 14.9623 18.7174 10.3508 18.7174C5.7394 18.7174 1.9843 14.9623 1.9843 10.3508Z"
    fill="#A5A5A5" stroke="#A5A5A5" stroke-linecap="round" stroke-linejoin="round" />
</svg>

<svg xmlns="http://www.w3.org/2000/svg" width="24" height="24" fill="none"><path fill="#A5A5A5" fill-rule="evenodd" stroke="#A5A5A5" stroke-linecap="round" stroke-linejoin="round" d="M21.669 21.654a.493.493 0 0 0 .001-.697l-4.365-4.366a9.314 9.314 0 0 0 2.397-6.24C19.702 5.188 15.513 1 10.35 1 5.188 1 1 5.188 1 10.35c0 5.164 4.188 9.352 9.35 9.352 2.412 0 4.598-.92 6.256-2.417l4.368 4.368a.492.492 0 0 0 .695.001ZM1.984 10.351c0-4.612 3.755-8.367 8.367-8.367 4.611 0 8.366 3.755 8.366 8.367 0 4.611-3.755 8.366-8.366 8.366-4.612 0-8.367-3.755-8.367-8.366Z" clip-rule="evenodd"/></svg>
